assets/icons/facebook-mobile.svg

<svg width="40" height="40" viewBox="0 0 40 40" fill="none" xmlns="http://www.w3.org/2000/svg">
<path fill-rule="evenodd" clip-rule="evenodd" d="M20 0C8.95431 0 0 8.9543 0 20C0 31.0457 8.95431 40 20 40C31.0457 40 40 31.0457 40 20C40 8.9543 31.0457 0 20 0ZM22.0846 20.8785V31.7596H17.5826V20.8789H15.3333V17.1293H17.5826V14.878C17.5826 11.819 18.8526 10 22.461 10H25.4651V13.7501H23.5873C22.1827 13.7501 22.0897 14.2741 22.0897 15.2521L22.0846 17.1288H25.4863L25.0883 20.8785H22.0846Z" fill="white"/>
</svg>

<svg width="40" height="40" fill="none" xmlns="http://www.w3.org/2000/svg"><path fill-rule="evenodd" clip-rule="evenodd" d="M20 0C8.954 0 0 8.954 0 20s8.954 20 20 20 20-8.954 20-20S31.046 0 20 0Zm2.085 20.878V31.76h-4.502V20.879h-2.25v-3.75h2.25v-2.251c0-3.059 1.27-4.878 4.878-4.878h3.004v3.75h-1.878c-1.404 0-1.497.524-1.497 1.502l-.005 1.877h3.401l-.398 3.75h-3.003Z" fill="#fff"/></svg>
